X:1
T:Ave Maria
T:David Monks October 2007
T:a Giovanni Danda, e alla Corale S. Martino, Vescovo, Ispra in occasione del 25.mo Anniversario di fondazione
T:©  David Monks. For public performance, recording or broadcast email dmon1@aliceadsl.fr 
T:Ave Maria
T:©  David Monks. For public performance, recording or broadcast email dmon1@aliceadsl.fr 
T:©  David Monks. For public performance, recording or broadcast email dmon1@aliceadsl.fr 
T:©  David Monks. For public performance, recording or broadcast email dmon1@aliceadsl.fr 
T:©  David Monks. For public performance, recording or broadcast email dmon1@aliceadsl.fr 
T:©  David Monks. For public performance, recording or broadcast email dmon1@aliceadsl.fr 
T:©  David Monks. For public performance, recording or broadcast email dmon1@aliceadsl.fr 
C:David Monks
C:October 2007
Z:©  David Monks. For public performance, recording or broadcast email dmon1@aliceadsl.fr
Z:
%%score [ ( 1 2 ) ( 3 4 ) ( 5 6 ) ( 7 8 ) ]
L:1/8
Q:1/4=70
M:4/4
K:C
V:1 treble nm="Soprano" snm="S."
V:2 treble 
V:3 treble nm="Alto" snm="A."
V:4 treble 
V:5 treble-8 transpose=-12 nm="Tenor" snm="T."
V:6 treble-8 transpose=-12 
V:7 bass nm="Bass" snm="B."
V:8 bass 
V:1
 z8 | z8 | z8 | z8 | z8 |!mf! (c4 G2 A2 | c4 (G2 A2) | (c2 _e2) d2!>(! _B2 | (c2 _B_A) G4-!>)! | %9
w: |||||A- ve Ma-|ri- a, _|pie- * na di|gra- * * zia,|
!mp! G8) |!mf! (c4 (d2 _e2) | (g2 f2 _e2) _d2 | (c2 _B_A B2)!>(! _d2!>)! |!mp! c8) | %14
w: |Il Sig- *|gno- * * re|è _ _ _ con|te.|
!mf! (c4 c2 _AA | _E3 F _A2 c2 | _d2 c6- | c8) |!f! (c4 c2 _A2 | _E2 _G2 A2 c2 | (_e2 _d4) c2 | %21
w: Tu sei be- ne-|det- ta fra le|don- ne.|_|E be- ne-|det- to è il|San- * to|
 (_e2 _d6)) |!<(! (c4 c2 _B_A | (F2 _A2) _d2 !>!d2 | !>!c8-!<)! | c8) |!mp! c8- | (c4 _e4) | %28
w: frut- to~|del ven- tre _|tu- * o, Ge-|sù.|_|Ah|_ _|
!f! (!>!g!>!f) !>!g6 |!mp! (e4 _e4 | e2 _dc c4) |!mf! (c2 _e2) (f2 d) z |!>(! (e4 _d2 d2 | %33
w: San- * ta.|Ah _|_ _ _ _|Mad- * re. _|Pre- ga per|
 (c2 _df) e4 | f2 _e2 (_A2 _B2) | c6)!>)!!f! (c2 | f8 | f6) (cc | (f2 e2) (A2 d2) | %39
w: no- * * i,|pec- ca- to *|ri. Ad-|es-|so, E nell'|o- * ra- *|
!<(! c2 A2 F2 _B2 | A2 c6- | c8-!<)! |!ff! c8) | z8 | z8 |!ff! z8 | %46
w: del- la mor- te|nos _|_|tra.||||
"^rit.""^rit.""^rit.""^rit.""^rit."!<(!!<(! (_A4 _B2!<)! =d2-!<)! | !>!!fermata!d2) !fermata!c6 |] %48
w: A- * *|* men.|
V:2
 x8 | x8 | x8 | x8 | x8 | x8 | x8 | x8 | x8 | x8 | x8 | x8 | x8 | ((_B2 G4 B2)) | x8 | x8 | x8 | %17
 x8 | x8 | x8 | x8 | x8 | x8 | x8 | x8 | x8 | x8 | x8 | x8 | x8 | x8 | x8 | x8 | x8 | x8 | x8 | %36
 (c2 _B2 A2 G2) | c6 (cc) | x8 | x8 | x8 | x8 | x8 | x8 | x8 | x8 | (F8 | G8) |] %48
V:3
 z8 | z8 |!mp! ((E6 F2) | D8- | D6) !fermata!z2 | z8 | z8 | z8 | z8 |!mf! (!>!F!>!_A) !>!G6 | z8 | %11
w: ||A _|_||||||A- * ve.||
 z8 |!mf! z8 | (E2 G2) _B2 G2 | (_A2 D2) _E2 EE | B,3 C _E2 G2 | (_B2 G4!<(! F!<)!=E | %17
w: ||Ma- * ri- a.|Tu _ sei be- ne-|det- ta fra le|don- ne, fra le|
!>(! =E2)!>)! _E6 |!f! (_E8 | _E8 | F4 G4 | _A8) |!<(! (_A2 F2) G2 A2 | _D4 D2 !>!F2 | %24
w: don- ne.|Ah|_|||del _ ven- tre|tu- o, Ge-|
 (!>!=E8!<)! | E8) |!mp! (_E4 G4 | _A4 c4) |!f! (!>!e!>!d)!mf! !>!c6 | (G4 _B2 _A2 | G2 (E_A) G4- | %31
w: sù.|_|Ah _|_ _|San- * ta|Mad- re di|Di- * * o|
 G8) |!>(! ((c2 G2) F2 G2 | (c2 _B2 c4) | F2 G2 F2 G2 | C6)!>)!!f! C2 | A8 | c6 AA | %38
w: _|||||||
 (F2 G2) (G2 A2) |!<(! G2 D2 D2 F2 | (F8 | G8!<)! |!ff! A8) | z8 |!f! z8 |!<(! =F8- | (F8!<)! | %47
w: |||||||A|_|
 !fermata!E8) |] %48
w: men|
V:4
 x8 | x8 | x8 | x8 | x8 | x8 | x8 | x8 | x8 | x8 | x8 | x8 | x8 | x8 | x8 | x8 | x8 | x8 | x8 | %19
 x8 | x8 | x8 | x8 | x8 | x8 | x8 | x8 | x8 | x8 | x8 | x8 | x8 | x8 | x8 | x8 | x8 | %36
 (A2 G2 F2 E2) | E6 EE | x8 | x8 | x8 | x8 | x8 | x8 | x8 | x8 | x8 | x8 |] %48
V:5
 z8 |!p!!<(! z4 _A4- | A8- | A8-!<)! | A6 !fermata!z2 | z8 | z8 | z8 |!mf! z8 | %9
w: |A|_||ve,|||||
 (!>!c!>!_e) !>!=e6 | z8 | z8 |!mf! z8 | (!>!G2 _B2) c2 e2 | _e4 e2 cc | _A4 c2 _e2 | (=e2 _e4 cG | %17
w: A- * ve.||||Ma- * ri- a.|Ah _ _ _|_ _ _||
 _B2) _A6 |!f! (G4 F4 | _G8 | F4 f4 | e8) |!<(! _e2 _A2 A2 A2 | _A4 A2 (!>!AA) | !>!=G8-!<)! | %25
w: |Ah _|_|||Ah _ _ _|_ _ Ge- *|sù.|
!mp! G8 | (G2 c2 _e4 | _e4 g4) |!f! (!>!G!>!c) !>!e6 |!mp! (c2 G2) _A2 c2 | G4 e4 | %31
w: _|Ah _ _|_ _|San- * ta.|Ah _ _ _|_ _|
!mf! (e2 c2) (d2 B) z |!>(! (c4 _A2 (_d_e) | (e2 _g2 =g4) | c2 c2 f4 | e6)!>)!!f!!f! c2 | c8 | %37
w: Mad- * re. _|Pre- ga per *|no- * i,|pec- ca- to|ri. Ad-|es-|
 c6 ee | (f2 c2) (c2 =B2) |!<(! c2 c2 A2 F2 | (c2 A2 F2 (_Bd) | f4 e4)!<)! |!ff! f8 |!mp! z8 | %44
w: so, E nell'|o- * ra- *|del- la mor- te|nos _ _ _ _|_ _|tra.||
!<(! z4!mf!!<(! d4- | d8- | (d8!<)!!<)! | !fermata!e8) |] %48
w: A|_||men|
V:6
 x8 | (F8- | F8- | F8- | F6) x2 | x8 | x8 | x8 | x8 | x8 | x8 | x8 | x8 | x8 | x8 | x8 | x8 | x8 | %18
w: |A|_||ve,||||||||||||||
 x8 | x8 | x8 | x8 | x8 | x8 | x8 | x8 | x8 | x8 | x8 | x8 | x8 | x8 | x8 | x8 | x8 | x8 | %36
w: ||||||||||||||||||
 (FEDC FGAc) | A6 AA | (c2 c2) z4 | x8 | x8 | x8 | x8 | x8 | c8- | c8- | (c8 | !fermata!c8) |] %48
w: ||||||||A|_||men|
V:7
!pp!!<(! z4 D,4- | D,8- | D,8- | D,8-!<)! | D,6 !fermata!z2 | z8 | z8 | z8 |!mf! z8 | %9
w: A|_|||ve,|||||
 (!>!_E,!>!B,,) !>!C,6 | z8 | z8 | z8 | (!>!G,2 E,2) C,2 _B,,2 | (_A,,8 | C,8) | _A,,8 | _A,,8 | %18
w: |||||||||
!f! (_A,,8 | =A,,8 | _B,,8 | =B,,6 _B,,2) | (_E,4 D,4 | =B,,6) !>!B,,2 | !>!C,8- |!mf! C,8 | %26
w: ||||||||
 (C,4 D,2 _E,2 |!>(! F,2 (_E,D,) C,4-!>)! | C,8) |!mp! C,8- | C,8 |!mf! (C,2 G,2) (_A,2 G,) z | %32
w: San- ta Ma-|ri- * * a|_|Ah|_||
!>(! ((C,4 _D,2) _B,,2 | C,4 C,4 | _D,2 _E,2 D,4 | C,6)!>)!!f! (C,2 | F,,8 | F,6) (F,F, | %38
w: ||||||
 (A,,2 C,2) (F,2 G,2) |!<(! A,2 F,2 _B,,2 G,,2 | C,8- | (C,8!<)! |!ff! (F,8)) | %43
w: |||||
!pp!"^subito"!<(! z4)!p!!<(! _A,4- | A,8- | A,8- | (A,8!<)!!<)! | !fermata!G,8) |] %48
w: A|_|||men|
V:8
 (C,8- | C,8- | C,8- | C,8- | C,6) x2 | x8 | x8 | x8 | x8 | x8 | x8 | x8 | x8 | x8 | x8 | C,8 | %16
w: A|_|||ve,||||||||||||
 x8 | x8 | x8 | x8 | x8 | x8 | x8 | x8 | x8 | x8 | x8 | x8 | x8 | x8 | x8 | x8 | x8 | x8 | x8 | %35
w: |||||||||||||||||||
 x8 | x8 | x8 | x8 | x8 | x8 | x8 | x8 | F,8- | F,8- | F,8- | (F,8 | !fermata!C,8) |] %48
w: ||||||||A|_|||men.|

